X: 14797
T: Gandy Dancer, The
R: jig
M: 6/8
K: Dmajor
|:D3 ABc|dfa g2e|a3 dfa|gec dcB|
A^GA DF/G/A|df/g/d EFG|FAd faf|1 edc d2A:|2 edc d2B||
|:AF/G/A d2B|A^GA DFA|BAB g2e|fdf edB|
AF/G/A dfa|g3 bag|fdA FAf|1 edc d2B:|2 edc d2A||

